local/templates/main/img/svg/emblem.svg

<svg width="32" height="33" viewBox="0 0 32 33" fill="none" xmlns="http://www.w3.org/2000/svg">
<path d="M11.8731 0L2.13816 5.56262C0.815061 6.31864 1.45257e-07 7.71584 0 9.22789L7.41963e-07 20.3155L3.35996 18.3956L3.35996 9.22789C3.35996 8.90387 3.53462 8.60447 3.81814 8.44247L11.8731 3.8398L11.8731 0Z" fill="#D91745"/>
<path d="M13.5368 32.433L3.80148 26.8701L7.16144 24.9502L15.2168 29.5531C15.5003 29.7151 15.8497 29.7151 16.1332 29.5531L24.1553 24.9693L27.5152 26.8892L17.8132 32.433C16.4901 33.189 14.8599 33.189 13.5368 32.433Z" fill="#D91745"/>
<path d="M31.35 20.3535L31.35 9.22789C31.35 7.71584 30.5349 6.31864 29.2118 5.56262L19.5094 0.0185866V3.85839L27.5319 8.44247C27.8154 8.60448 27.99 8.90388 27.99 9.22789V18.4336L31.35 20.3535Z" fill="#D91745"/>
<path d="M22.4441 22.1825L23.1014 21.0636L15.6646 16.8442L8.17547 21.0933L8.81539 22.1825H22.4441Z" fill="#D91745"/>
<path d="M7.39721 19.7031L14.8864 15.4541V6.76485H13.799L6.79739 18.6822L7.39721 19.7031Z" fill="#D91745"/>
<path d="M16.4375 6.76485L16.4375 15.4541L23.8743 19.6734L24.5136 18.5855L17.5688 6.76485H16.4375Z" fill="#D91745"/>
</svg>

<svg width="32" height="33" viewBox="0 0 32 33" fill="none" xmlns="http://www.w3.org/2000/svg"><path d="M11.873 0L2.138 5.563A4.225 4.225 0 000 9.228v11.088l3.36-1.92V9.228c0-.324.175-.624.458-.786l8.055-4.602V0zm1.664 32.433L3.8 26.87l3.36-1.92 8.056 4.603a.925.925 0 00.916 0l8.022-4.584 3.36 1.92-9.702 5.544a4.315 4.315 0 01-4.276 0zM31.35 20.354V9.228c0-1.512-.815-2.91-2.138-3.665L19.509.019v3.84l8.023 4.583a.905.905 0 01.458.786v9.206l3.36 1.92zm-8.906 1.829l.657-1.12-7.436-4.219-7.49 4.25.64 1.088h13.63zm-15.047-2.48l7.49-4.249v-8.69h-1.088L6.797 18.683l.6 1.021zm9.041-12.938v8.69l7.436 4.218.64-1.087-6.945-11.821h-1.131z" fill="#D91745"/></svg>
